src/svgs/photoshop.svg

<?xml version="1.0" encoding="UTF-8" standalone="no"?>
<svg
   viewBox="0 0 32 32"
   version="1.1"
   id="svg894"
   xmlns="http://www.w3.org/2000/svg"
   xmlns:svg="http://www.w3.org/2000/svg">
  <defs
     id="defs898" />
  <path
     id="path890"
     d="M 7 7 L 7 25 L 24.5 25 C 24.9 25 25 24.9 25 24.5 L 25 7.4003906 L 25 7 L 7 7 z M 11.5 10.800781 C 12.4 10.800781 13.299609 10.800391 14.099609 10.900391 C 15.799609 11.100391 16.700781 12.199219 16.800781 13.699219 C 16.900781 15.399219 16.000391 16.699609 14.400391 17.099609 C 13.600391 17.299609 13 17.300391 12 17.400391 L 12 21 L 10.199219 21 C 10.099219 21 10 20.7 10 20.5 L 10 11 C 10 10.9 11 10.800781 11.5 10.800781 z M 12 12.300781 L 12 15.699219 C 13 15.799219 13.399609 15.8 14.099609 15.5 C 14.799609 15.2 14.900391 14.500391 14.900391 13.900391 C 14.900391 13.200391 14.500391 12.7 13.900391 12.5 C 13.300391 12.4 13 12.400781 12 12.300781 z M 19.90625 13.496094 C 20.459961 13.50293 21 13.613281 21.5 13.800781 C 21.6 13.800781 21.799219 14.099219 21.699219 14.199219 C 21.599219 14.599219 21.500391 14.900781 21.400391 15.300781 C 20.900391 15.200781 20.4 15.1 20 15 C 19.8 15 19.500781 14.999609 19.300781 15.099609 C 18.800781 15.299609 18.699609 15.899219 19.099609 16.199219 C 19.299609 16.399219 19.500781 16.399609 19.800781 16.599609 C 20.100781 16.799609 20.500391 16.899609 20.900391 17.099609 C 21.700391 17.399609 22.099609 18.099609 22.099609 19.099609 C 21.999609 19.999609 21.499219 20.600391 20.699219 20.900391 C 19.499219 21.400391 18.299609 21.300781 17.099609 20.800781 C 16.999609 20.800781 16.900391 20.6 16.900391 20.5 C 17.000391 20.1 17.099219 19.700391 17.199219 19.400391 C 17.899219 19.500391 18.599219 19.700781 19.199219 19.800781 C 19.599219 19.900781 19.999609 19.699219 20.099609 19.199219 C 20.199609 18.799219 20 18.499219 19.5 18.199219 C 19.2 17.999219 18.8 17.900781 18.5 17.800781 C 17.4 17.300781 16.9 16.6 17 15.5 C 17.1 14.6 17.800391 13.899609 18.900391 13.599609 C 19.237891 13.524609 19.574023 13.491992 19.90625 13.496094 z " />
</svg>

<svg xmlns="http://www.w3.org/2000/svg" viewBox="0 0 32 32"><path d="M25 7.4V7H7v18h17.5c.4 0 .5-.1.5-.5V7.4zm-10.6 9.7c-.8.2-1.4.2-2.4.3V21h-1.8c-.1 0-.2-.3-.2-.5V11c0-.1 1-.2 1.5-.2.9 0 1.8 0 2.6.1 1.7.2 2.6 1.3 2.7 2.8.1 1.7-.8 3-2.4 3.4zm7.7 2c-.1.9-.6 1.5-1.4 1.8-1.2.5-2.4.4-3.6-.1-.1 0-.2-.2-.2-.3.1-.4.2-.8.3-1.1.7.1 1.4.3 2 .4.4.1.8-.1.9-.6.1-.4-.1-.7-.6-1-.3-.2-.7-.3-1-.4-1.1-.5-1.6-1.2-1.5-2.3.1-.9.8-1.6 1.9-1.9.9-.2 1.8-.1 2.6.2.1 0 .3.3.2.4-.1.4-.2.7-.3 1.1-.5-.1-1-.2-1.4-.3-.2 0-.5 0-.7.1-.5.2-.6.8-.2 1.1.2.2.4.2.7.4.3.2.7.3 1.1.5.8.3 1.2 1 1.2 2z"/><path d="M13.9 12.5c-.6-.1-.9-.1-1.9-.2v3.4c1 .1 1.4.1 2.1-.2.7-.3.8-1 .8-1.6 0-.7-.4-1.2-1-1.4z"/></svg>
